X: 14
T: Shangao luyuan jianbushang
L: 1/16
M: 2/4
K: A
c'2b4c' b [I:setbarnb 1]| 
a f e cB4 | 
b b b b f2 e' a | 
b8 | 
c'2b4c' b | 
a f e cB4 | 
b b b b f2 e' a | 
e8 |]

@@@ Tune index: 8888
